images/hero/icon-blocks.svg

<svg width="20" height="20" viewBox="0 0 20 20" fill="none" xmlns="http://www.w3.org/2000/svg">
<g clip-path="url(#clip0_433_1899)">
<path d="M8.33268 18.3346V5.83464C8.33268 5.61362 8.24488 5.40166 8.0886 5.24538C7.93232 5.0891 7.72036 5.0013 7.49935 5.0013H3.33268C2.89065 5.0013 2.46673 5.1769 2.15417 5.48946C1.84161 5.80202 1.66602 6.22594 1.66602 6.66797V16.668C1.66602 17.11 1.84161 17.5339 2.15417 17.8465C2.46673 18.159 2.89065 18.3346 3.33268 18.3346H13.3327C13.7747 18.3346 14.1986 18.159 14.5112 17.8465C14.8238 17.5339 14.9993 17.11 14.9993 16.668V12.5013C14.9993 12.2803 14.9116 12.0683 14.7553 11.912C14.599 11.7558 14.387 11.668 14.166 11.668H1.66602M12.4993 1.66797H17.4993C17.9596 1.66797 18.3327 2.04106 18.3327 2.5013V7.5013C18.3327 7.96154 17.9596 8.33464 17.4993 8.33464H12.4993C12.0391 8.33464 11.666 7.96154 11.666 7.5013V2.5013C11.666 2.04106 12.0391 1.66797 12.4993 1.66797Z" stroke="white" stroke-width="2" stroke-linecap="round" stroke-linejoin="round"/>
</g>
<defs>
<clipPath id="clip0_433_1899">
<rect width="20" height="20" fill="white"/>
</clipPath>
</defs>
</svg>

<svg xmlns="http://www.w3.org/2000/svg" width="20" height="20" fill="none" viewBox="0 0 20 20"><g clip-path="url(#a)"><path stroke="#fff" stroke-linecap="round" stroke-linejoin="round" stroke-width="2" d="M8.333 18.335v-12.5A.833.833 0 0 0 7.499 5H3.333a1.667 1.667 0 0 0-1.667 1.667v10a1.667 1.667 0 0 0 1.667 1.667h10a1.667 1.667 0 0 0 1.666-1.667v-4.167a.833.833 0 0 0-.833-.833h-12.5m10.833-10h5c.46 0 .834.373.834.833v5c0 .46-.373.834-.834.834h-5a.833.833 0 0 1-.833-.834v-5c0-.46.373-.833.833-.833"/></g><defs><clipPath id="a"><path fill="#fff" d="M0 0h20v20H0z"/></clipPath></defs></svg>
